!!!COM:	Bach, Johann Sebastian
!!!OMV:	Nun komm, der Heiden Heiland
!!!OTL:	Nun komm, der Heiden Heiland
**kern	**fb	**kern	**kern	**kern	**kern
*part5	*part5	*part4	*part3	*part2	*part1
*staff5	*	*staff4	*staff3	*staff2	*staff1
*I"Continuo	*	*I"Voice	*I"Voice	*I"Voice	*I"Voice
*I'Cont.	*	*I'V	*I'V	*I'V	*I'V
*clefF4	*	*clefF4	*clefGv2	*clefG2	*clefG2
*Trd0c0	*	*	*	*	*
*k[f#c#]	*	*k[f#c#]	*k[f#c#]	*k[f#c#]	*k[f#c#]
*M4/4	*	*M4/4	*M4/4	*M4/4	*M4/4
=	=	=	=	=	=
8BL	.	8BL	4d	4f#	4b
8AJ	.	8AJ	.	.	.
4G	6 4 3	4G	8c#L	4e	4b
.	.	.	8BJ	.	.
8F#L	.	8F#L	4c#	4f#	4a
8E	.	8E	.	.	.
8D	6	8D	4B	8f#	4dd
8BBJ	.	8BBJ	.	16gLL	.
.	.	.	.	16aJJ	.
=3	=3	=3	=3	=3	=3
8EL	6 5	8EL	4.B	8gL	8cc#L
8D	6	8D	.	8f#J	8bJ
8E	6 5	8E	.	4e	4cc#
8F#J	#	8F#J	8A#X	.	.
2BB;	.	2BB;	2F#;	2d;	2b;
=4	=4	=4	=4	=4	=4
4BB	.	4BB	8dL	4.f#	8bL
.	.	.	8c#J	.	8cc#J
4B	5	4B	4B	.	4dd
.	#6\	.	.	8g#X	.
8AL	.	8AnL	4c#	4.a	4ee
8GJ	.	8GnJ	.	.	.
4F#	6 3	4F#	4d	.	4dd
.	4	.	.	8b	.
=5	=5	=5	=5	=5	=5
4E	6	4E	4G	4cc#	4ee
4D	8	4D	8A	8ddL	4ff#
.	nr7	.	16BLL	8f#J	.
.	.	.	16cnJJ	.	.
2G;	.	2G;	2B;	2g;	2dd;
=6	=6	=6	=6	=6	=6
8F#L	6	8F#L	4A	4a	4dd
8E	.	8E	.	.	.
8D	5 2	8D	4e	4a	4ee
8C#J	.	8C#J	.	.	.
4D	3 5	4D	8dL	8aL	8ff#L
.	2 -5/	.	8c#J	8a#XJ	8eeJ
8GL	5 3	8GL	4B	4b	4dd
8F#J	.	8F#J	.	.	.
=7	=7	=7	=7	=7	=7
!!linebreak:original
4E	6 8	4E	4g	8cc#L	8eeL
.	5 7	.	.	8bJ	8ddJ
4F#	#	4F#	8c#L	4a#X	4cc#
.	.	.	8f#J	.	.
2BB;	.	2BB;	2d;	2f#;	2b;
=8	=8	=8	=8	=8	=8
8BL	.	8BL	4d	4f#	4b
8AJ	.	8AJ	.	.	.
4G#X	#6\ 4 3	4G#X	8c#L	4e#X	4b
.	.	.	8BJ	.	.
8F#L	.	8F#L	4c#	8f#L	4a
8E	.	8E	.	8g#XJ	.
8F#	6	8F#	4f#	8aL	4dd
8G#J	7 5	8G#J	.	8bJ	.
=9	=9	=9	=9	=9	=9
8A#XL	6 5	8A#XL	8eL	8f#L	8cc#L
8B	.	8BJ	8dJ	[8bJ	8bJ
8F#	4	4F#	16c#LL	8bL]	4cc#
.	.	.	16dJ	.	.
8FF#J	#	.	8eJ	8a#XJ	.
2BB;	.	2BB;	2d#X;	2f#;	2b;
=||	=||	=||	=||	=||	=||
*-	*-	*-	*-	*-	*-
!!!system-decoration: s1,s2,s3,s4,s5
